!!!OTL: Yingxiong mofan peichengshuang
!!!ARE: Asia, China,ÿGuangxi Xingan
!! II, 473
!!!SCT: C1981
!!!YEM: Copyright 1995, estate of Helmut Schaffrath.
**kern
*ICvox
*Ivox
!! 6/83+2 metric grouping
!! Mixed meters:  4/8; 5/8
*M5/8
*k[f#c#g#]
*A:
{8b
8b
8a
8b
=1
8ee
8cc#
8cc#
8b
=2
16a
16f#
4f#}
{8a
=3
8b
8b
8b
16f#
16a
16f#
16e
=4
4c#
8e
16f#
16a
16f#
16e
=5
*M4/8
4.f#
16b
16a
=6
4.f#}
{8a
8f#
8a
=7
4.cc#
16b
16a
4f#}
{8b
8b
8a
8b
=8
8ee
4cc#
8ee
=9
*M5/8
8b
8b
8b
16f#
16a
16f#
16e
=10
4c#
8e
16f#
16a
16f#
16e
=11
*M4/8
4.f#
16b
16a
=12
4.f#}
{8a
8f#
8a
=13
4.cc#
16b
16a
4f#}
{8b
8b
8a
8b
=14
8cc#
4cc#
8ee}
=15
*M5/8
{8a
8b
8b
16f#
16a
16f#
16e
=16
4c#
8e
16f#
16a
16f#
16e
=17
4f#
16b
16a
4.f#}
==
!!!AGN: Xiaodiao, Helangge
!!!AMT: irregular
!!!AIN: vox
!!!EED: Helmut Schaffrath
!!!EEV: 1.0
*-
